X:1
T:Tanto tempore
T:Philippe Verdelot
T:Source : Liber Motettorum IV---Paris---P.Attaignant---1534. Editor : André Vierendeels (28/08/17).
T:Notes : Original clefs :C3, C3, C4, F4 Original note values have been halved Editorial accidentals above tha staff Square bracket indicates ligature
T:Tanto tempore
T:©
T:©
T:©
T:©
T:©
C:Philippe Verdelot
Z:©
%%score [ 1 2 3 4 ]
L:1/8
Q:1/4=120
M:2/2
K:F
V:1 treble-8 nm="Tenor 1" snm="T 1"
V:2 treble-8 nm="Tenor 2" snm="T 2"
V:3 treble-8 nm="Tenor 3" snm="T 3"
V:4 bass nm="Bass" snm="B"
V:1
 z8 | z8 | z4 G4- | G4 G4 | c6 c2 | c4 z2 f2 | d2 f3 edc | B3 c d4 | c4 z2 f2 | d2 f3 e d2- | %10
w: ||Tan-|* to|tem- po-|re, tan-|to tem- * * *|* * po-|re, Tan-|tum tem- * *|
 d2 c2 d3 c/B/ | A2 B4 AG | A4 G4- |"^b" G2 FE F4 | G8 | z4 z2 d2 | f2 e3 d d2- | d2 c2 d4 | %18
w: * po- re _ _|_ vo- * *|bis- cum|_ _ _ _|sum,|vo-|bis- cum _ _|_ _ sum|
 z4 _e4 | _e2 e2 d4 | B2 c3 BAG | A4 G2 G2 | A2 B2 c4 | z2 G2 A2 B2 | c2 z G A2 B2 | c4 z2 f2 | %26
w: et|non co- gno-|vi- * * * *|sti me, al-|le- lu- ya,|al- le lu-|ya, al- le lu-|ya, al-|
"^b" e2 g3 fde | f2 g4 f2 | g4 z2 G2 | d4 d4- | d4 z4 | z4 z2 G2 | d4 d4 | z2 d2 f4 | e4 d4 | %35
w: le- lu- * * *||ya, Phi-|lip- pe,|_|Phi-|lip- pe,|qui vi-||
 c3 d ef g2- | g2 f3 ecd | ef g4 f2- | f2 ed cdec | d8 | z2 d2 e2 f2 | g4 f4 | e2 d4 c2 | %43
w: ||* * * det|_ _ _ _ _ _ _|me,|vi- det et|pa- *||
 d2 d2 e2 f2 | g4 f2 g2- | g2 f2 g4 | z2 G2 A2 B2 | c4 z2 G2 | A2 B2 c2 z G | A2 B2 c4 | %50
w: trem, vi- det at|pa- * *|* * trem,|al- le- lu-|ya, al-|le- lu- ya, al-|le- lu- ya,|
"^-natural" z2 f2 e2 g2- | gfde f2 g2- | g2 f2 g2 d2 | f3 e cdef | g3 f d2 g2- | g2 f2 e4- | %56
w: al- le- lu-||||||
 e4 d4- | d8 |] %58
w: * ya.|_|
V:2
 z8 | z8 | z8 | z8 | z8 | z4 D4- | D4 D4 | G6 G2 | G4 z4 | D4 F4 | G4 A4 | z2 d2 d2 d2 | %12
w: |||||Tan-|* to|tem- po-|re,|vo- bis-|cum sum|et non co-|
 c4 B2 c2- | cBAG A4 | D2 E3 F G2- | G2 F2 G4 | F2 B3 AGF | G4 A4 | B2 c3 B B2- | B2 A2 B4 | G8 | %21
w: gno- vi- *|* * * * stis|me, et _ _|_ non co-|gno- vi- * * *||||stis|
 d4 z4 | z4 z2 A2 | B2 B2 A2 G2 | A2 Bc d2 F2 | G2 A2 G2 F2 | G2 c4 B2 | A2 G2 A4 | G8- | %29
w: me,|al-|le- lu- * *|* * * ya, al-|le- lu- * *|ya, al- le-|lu- * *|ya,|
 G4 z2 D2 | A4 A4 | z2 A2 c4 | B2 A3 GFE | F2 D2 A4- | A4 z4 | z8 | z2 D2 F4 | E4 D4 | A8 | %39
w: _ Phi-|lip- pe|qui vi-||* det me,|_||qui vi-|* det|me,|
 z2 F2 G2 c2 | G3 A Bc d2- | d2 c2 d3 c | B2 A2 G4 |"^b" F2 f2 e2 d2- | d2 c2 d4- | d4 B2 c2- | %46
w: vi- det et|pa- * * * *|||trem, vi- * det|_ et pa-|* trem, al-|
 c2 B2 A2 G2 | z2 A2 B2 B2 | A2 G2 A2 Bc | d2 F2 G2 A2 | G2 F2 G2 c2- | c2 B2 A2 G2 | A4 G4 | %53
w: * le- lu- ya,|al- le- lu-||ya, al le- lu-|* * ya, al-|* le- lu- *||
 F3 G A4 | G4 B2 c2 | d4 G4- | G8- | G8 |] %58
w: ya, _ _|al- le- *|lu- ya.|_||
V:3
 D8 | D4 G4- | G2 G2 G4 | E8 | E8 | F6 F2 | F4 z2 F2 | G2 B3 AGF | ED E2 F2 D2 | F3 G A2 B2- | %10
w: Tan-|to tem-|* po- re,|tan-|to|tem- po-|re vo-|bis- * * * *||* * * cum|
 B2 AG F4- | F8- | F4 z4 | z8 | z4 c4 | c2 c2 B4 | A2 G3 FED | E4 D3 E | F2 G3 F F2- | %19
w: _ _ _ sum,|_|||et|non co- gno-|vi- * * * *|||
"^b" F2 E2 F4 |"^b" z2 CD EF G2- | G2 F2 GFED | C2 D2 E2 F2 | G2 d2 c2 B2 | A2 G2 F2 ED | %25
w: * sti- me,|et _ _ _ _|_ non co- * * *|* gno- vi- sti|me, al- le- lu-||
 C2 c2 c2 B2 | c2 G2 A2 B2 | c4 d4 | B6 AG | B4 A4 | F8 | z8 | z2 D2 A4 | A4 z2 A2 | c4 B4 | %35
w: ya, al- le- lu-|ya, al- le lu-|ya, _|al- le- *|lu- *|ya,||Phi- lip-|pe qui|vi- det|
 A4 z2 G2 | B4 A4 | G4 z2 D2 | F4 E4 | D4 z4 | z4 z2 A2 | B2 G2 B3 A | G2 F2 _E4 | D4 z2 A2 | %44
w: me, qui|vi- det|me, qui|vi- det|me|vi-|det et pa- *||trem, vi-|
 B2 G2 B3 c | A4 G4- | G4 z2 D2 | E2 F2 G2 d2 | c2 B2 A2 G2 | F3 E/D/ C2 c2 | c2 B2 c2 G2 | %51
w: det et pa- *|* trem,|_ al-|le- lu- ya, al|le- lu- * *|* * * ya, al-|le- lu- ya, al-|
 A2 B2 c4 | d3 c B4 | A4 c4 | B4 G4 | A2 B2 c4- |"^-natural" c4 B4- | B8 |] %58
w: le lu- *|||ya, al-|le- * lu-|* ya.|_|
V:4
 z8 | G,,8 | G,,4 C,4- | C,2 C,2 C,4 | A,,8 | A,,4 B,,4- | B,,2 B,,2 B,,4 | z2 G,,2 B,,4 | %8
w: |Tan-|to tem-|* po- re,|tan-|to tem-|* po- re|vo- bis-|
 C,4 D,4- | D,2 D,2 D,4 |"^b" E,4 D,4- | D,4 z4 | z4 _E,4 | _E,2 E,2 D,4 | B,,2 C,3 B,,A,,G,, | %15
w: cum sum,|_ vo- bis-|cum sum,|_|et|non co- gno-|vi- * * * *|
 A,,4 G,,4 | z4 G,4 | G,2 G,2 F,4 |"^b" D,2 E,3 D,C,B,, | C,4 B,,4 | _E,4 E,2 E,2 | %21
w: stis me,|et|non co- gno-|vi- * * * *|stis me,|et non co-|
"^-natural" D,4 B,,2 C,2- |"^#" C,2 B,,2 A,,4 | G,,4 z2 G,2 | F,2 E,2 D,4 | z2 F,2 _E,2 D,2 | %26
w: gno- vi- *|* * stis|me, al-|le- lu- ya,|al- le- lu-|
 C,4 z2 G,2 | F,2 E,2 D,4 | G,,8 | z2 G,,2 D,4 | D,4 z2 D,2 | F,4 E,4 | D,8- | D,8 | z4 z2 D,2 | %35
w: ya, al-|le- lu- *|ya,|Phi- lip-|pe, qui|vi- det|me,|_|qui|
 F,4 E,4 | D,4 z2 A,,2 | C,4 B,,4 | A,,8 | z2 A,2 B,2 G,2 | B,3 A, G,2 F,2 | E,4 D,4 | %42
w: vi- det|me, qui|vi- det|me,|vi- det et|pa- * * *|* trem,|
 z2 A,2 B,2 G,2 | B,3 A, G,2 F,2 |"^b" E,4 D,4 |"^b" z2 D,2 E,2 C,2 |"^b" E,3 D, C,2 B,,2 | %47
w: vi- det et|pa- * * *|* trem,|vi- det et|pa- * * *|
 A,,4 G,,4 | z2 G,2 F,2 E,2 |"^b" D,4 z2 F,2 | _E,2 D,2 C,4 |"^b" z2 G,2 F,2 E,2 | %52
w: * trem|al- le lu-|ya, al-|le- lu- ya,|al- le lu-|
 D,4 G,,A,,B,,C, | D,E, F,3 E,C,D, |"^b""^b" E,F, G,3 F, E,2 | D,4 C,4- | C,4 G,,4- | G,,8 |] %58
w: ya _ _ _ _|_ _ _ _ _ _|* * * al- le-|* lu-|* ya|_|

